X:1
T:Appariran per me
T:Appariran per me
T:Orlandus Lassus
T:Source: Harmonia celeste---Anversa---P.Phalesio & G.Bellero---1583. Editor: André Vierendeels (29/11/13).
C:Orlanus Lassus
%%score [ 1 2 [ 3 4 ] ]
L:1/8
Q:1/4=100
M:4/4
K:C
V:1 treble nm="Canto" snm="C"
V:2 treble nm="Alto" snm="A"
V:3 treble-8 nm="Tenor 1" snm="T 1"
V:4 treble-8 nm="Tenor 2" snm="T 2"
V:1
 z8 | z8 | z4 G4 | G2 G2 E4 | F4 G4- | G4 c4 | d4 e4 | d8 | e4 c4 | c4 c4 | B4 G4 | G4 G4 | F4 E4 | %13
w: ||Ap-|pa- ri- ran|per me|_ le|stel- l'in|cie-|lo, e|non sa-|ran piu|per le|val- li|
 D8 | E8 | z8 | z8 | z8 | c4 c2 c2 | d4 d4 | e6 d2 | c4 A4 | B6 AG | A8 | B8 | z4 c4- | c2 c2 c4 | %27
w: neb-|bia,||||ver- di'e fio-|i- ti|tor- ne-|ran i|cam- * *||pi,|quan-|* do giun-|
 B4 B4 | A6 A2 | c2 c2 B4 | A4 z2 d2 | c2 c2 B4 | A2 f2 f2 e2 | d8- | d8 | ^c4 z4 | z2 d2 e2 e2 | %37
w: to fa-|ro dal|mio bel so-|le, dal|mio bel so-|le, dal mio bel|so-||le,|che scac- cia-|
 ^c2 c2 d4 | B4 c2 e2 | d8 | d4 B4- | B2 c2 c2 d2- | d2 d2 e2 e2 | d2 d2 B4 | A4 z2 A2 | B4 c2 c2 | %46
w: ran li ven-|ti'e- la gran|piog-|gia, qual|_ so- ven- te|_ m'ha fat- t'in|mar for- tu-|na, qual|so- ven- te|
 c2 d4 G2 | E2 F2 G4 | C2 c2 c2 B2 | A2 c4 B2- | B2 A4 G2 | E4 ^F4 | G8- | G8 |] %54
w: m'ha fat- t'in|mar for- tu-|na, qual so- ven-|te m'ha- fat-|* t'in mar|for- tu-|na.|_|
V:2
 G4 G2 G2 | E4 F4 | G2 F2 E2 D2 | E8 | z4 D4 | E2 F2 G2 A2 | B4 c4- | c4 B4 | c4 G4 | A4 G4 | %10
w: Ap- pa- ri-|ran per|me _ _ _|_|le|stel- * * *|* l'in|_ cie-|lo, e|non sa-|
 G4 E4 | D4 C4 | D4 G,4 | A,4 G,4- | G,4 G4 | G2 G2 A4- | A4 B4- | B4 c4- | c2 B2 A4- | A2 A2 B4 | %20
w: ran piu|per le|val- li|neb- bia,|_ ver-|di'e fio- ri-|* ti|_ tor-|* ne- ran|_ i cam-|
 c4 G4- | G2 E2 F4 | D4 G4- | G2 FE ^F4 | G8 | E6 E2 | E4 A4- | A4 G4 | F2 F2 E2 E2 | A4 G4 | %30
w: pi tor-|* ne- ran|i cam-||pi,|quan- do|giun- to|_ fa-|ro dal mio bel|so- le,|
 F4 A4- | A2 A2 ^G4 | A2 c2 c2 c2 | _B2 A2 A4- | A2 GF G4 | A4 z2 A2 | B2 B2 G2 G2 | A2 E2 F2 A2 | %38
w: dal mio|_ bel so-|le, dal mio bel|so- * *||le, che|scac- cia- ran li|ven- ti'e la gran|
 G4 G2 c2 | A2 B2 A4 | B4 G4 | G4 A4 | B4 c4 | A2 A2 G4 | E4 ^F4 | G6 G2 | A4 B4 | c2 A2 _B2 B2 | %48
w: piog- gia, e|la gran piog-|gia, qual|so- ven-|te m'ha|fat- t'in mar|for- tu-|na, qual|so- ven-|te m'ha fat- t'in|
 A2 A2 G4 | E2 A4 G2- | G2 F4 D2- | D2 ^C2 D2 A,2 | E2 E2 D4 | E8 |] %54
w: mar for- tu-|na, qual so-|* ven- te|_ m'ha fat- t'in|mar for- tu-|na.|
V:3
 z4 c4 | c2 c2 A4 | B4 c4 | z4 A4 | c4 G4 | g8 | g8 | z4 g4- | g4 e4- | e4 e4 | d4 c4 | B4 G4 | %12
w: Ap-|pa- ri- ran|per me|le|stel- l'in|cie-|lo,|e|_ non|_ sa-|ran piu|per le|
 A4 c4- | c4 B4 | c8 | e4 e2 e2 | ^f8 | g8 | a6 g2 | ^f4 g4- | g2 f2 e4- | e4 d2 c2 | g4 d4 | d8 | %24
w: val- li|_ reb-|bia,|ver- di'e fio-|ri|ti|tor- ne-|ran i|_ _ cam-||pi, i|cam-|
 G8 | g8 | a4 e4 | e4 e4 | c2 d2 c2 c2 | f4 d4- | d2 d2 f2 f2 | e4 e4 | z2 a2 a2 g2 | f6 e2 | d8 | %35
w: pi,|quan-|do giun-|to fa-|ro dal mio bel|so- le,|_ dal mio bel|so- le,|dal mio bel|so- *||
 e2 e2 f2 f2 | d2 g4 e2- | e2 a2 a2 f2 | d4 e2 g2 | ^f2 g4 f2 | g4 d4 | e4 f4 | g4 g4 | f4 d4 | %44
w: le, che scac- cia-|ran li ven-|* ti'e la gran|piog- gia, e|la gran piog-|gia, qual|so- ven-|te m'ha|fat- t'in|
 ^c2 c2 d4 | d2 d2 e4 | f2 f2 d2 e2- | e2 c2 d2 d2 | f4 e2 d2- | d2 c2 e4 | d2 d2 c2 B2 | %51
w: mar for- tu-|na, qual so-|ven- te m'ha fat-|* t'in mar for-|tu- na, qual|_ so- ven-|te m'ha fat- to|
 z2 A4 d2 | B2 c4 B2 | c8 |] %54
w: in mar|for- tu- *|na.|
V:4
 z8 | z8 | z8 | c4 c2 c2 | A4 B4 | c4 c4 | G4 c4 | g8 | c4 c4 | A4 c4 | G4 C4 | G4 E4 | D4 E4 | %13
w: |||Ap- pa- ri-|ran per|me le|stel- l'in|cie-|lo, e|non sa-|ran piu|per le|val- li|
 F4 G4 | C8 | c4 c2 c2 | d8 | e8 | f6 e2 | d4 G4 | c6 B2 | A8 | G8 | z4 d4- | d2 d2 d4 | c4 c4 | %26
w: reb- *|bia,|ver- di'e fio-|ri-|ti|tor- ne-|ran- i|cam- *||pi,|quan-|* do giun-|to fa-|
 A8 | z4 E4 | F2 D2 A4 | F4 G4 | D2 D2 d4 | A4 z2 e2 | f4 c4 | d6 c2 | _B8 | A2 A2 d2 d2 | %36
w: ro|dal|mio bel so-|le, dal|mio bel so-|le, dal|mio bel|so- *||le, che scac- cia-|
 G2 G2 c4 | A2 A2 d2 d2 | G2 G2 c2 c2 | d2 G2 d4 | G8 | z8 | G4 c4 | d4 G2 G2 | A2 A2 D2 D2 | %45
w: ran li ven-|ti, che scac- cia-|ran li ven- ti'e|la gran piog-|gia,||qual so-|ven- te m'ha|fat- t'in mar for-|
 G4 C4 | F4 G4 | A4 G2 G2 | F2 F2 c2 G2 | A4 E2 E2 | F2 D2 F2 G2 | A4 D4 | E2 C2 G4 | C8 |] %54
w: tu- na,|qual so-|ven- te m'ha|fat- to'in mar for-|tu- na, qual|so- ven- te m'ha|fat- to'in|mar for- tu-|na.|

